X:1
T:Title
%%score { ( 1 3 ) | ( 2 4 ) }
L:1/8
M:3/4
K:Bb
V:1 treble nm="Grand Piano"
V:3 treble 
V:2 treble 
V:4 treble 
V:1
 z2 z[Q:1/4=60] G G>B | z2 Ec c>G | z2 EG Be | [Fd]4 z2 | [GB]4 z2 | z2 Ec c>G | [GB]B BB [_DGA]B | %7
 dd e[Fd] [Fd][Ec] |[M:2/4] [DB]4 |[M:1/4] e2 |[M:3/4] z2 c4 | z2 [GB]4 | [GB]_A FA cd | %13
[M:13/16] [_Ac]-<[Ac] z/ z/ z Ee3/2 |[M:3/4] z2 c4 | z2 [GB]4 | [Fd]c BA _AF |[M:3/8] E3 |] %18
V:2
 z2 z E E>G | .[E,,E,]2 [G,B,][K:treble]G .[G,B,EG]>E | .[E,,E,]2 [G,B,][K:treble]E [G,B,EG]G | %3
 .B,,2 _A,[K:treble]D .[A,B,D_A]>B | .[E,,E,]2 [G,B,][K:treble]E .[G,B,E]>G | %5
 .[E,,E,]2 [G,B,][K:treble]G .[G,B,EG]>E | [E,,E,][K:treble]G [G,B,EG]G =E,G | %7
 FF .G2[K:bass] G,A, |[M:2/4] z F,/D,/ B,,2 |[M:1/4][K:treble] c2 |[M:3/4] z2 _A4 | %11
 .[E,,E,]>E .G,2 G,G | D,[K:treble]F [_A,B,D]F [A,B,D_A]B | %13
[M:13/16][K:bass] .[D,,E,]3/2 z/ [G,B,E] z [G,B,][K:treble]c3/2 |[M:3/4] z2 _A4 | .E,>E .G,2 G,G | %16
 B,,[K:treble]_A [_A,B,DG]^F [A,B,D=F]D |[M:3/8][K:bass] [E,G,B,]3 |] %18
V:3
 x6 | [GB]4 z2 | [GB]4 z2 | z2 [B,D]F c>d | z2 EG G>B | [GB]4 z2 | x6 | x6 |[M:2/4] .B,2 z2 | %9
[M:1/4] x2 |[M:3/4] [Bd]>_A z2 Dd | [Gc]>G .[B,E]2 [B,E]B | x6 | %13
[M:13/16] z/ z/ z [GB]/-[GB]/-[GB]-<[GB] z/ z |[M:3/4] [Bd]>_A z2 Dd | [Gc]>G .[B,E]2 [B,E]e | x6 | %17
[M:3/8] x3 |] %18
V:4
 x6 | x3[K:treble] x3 | x3[K:treble] x3 | x3[K:treble] x3 | x3[K:treble] x3 | x3[K:treble] x3 | %6
 x[K:treble] x5 | [F,B,]3[K:bass] F,3 |[M:2/4] B,,2 z2 |[M:1/4][K:treble] x2 | %10
[M:3/4] .B,,>F .[_A,B,D]2 [A,B,]_A | x6 | x[K:treble] x5 |[M:13/16][K:bass] x5[K:treble] x3/2 | %14
[M:3/4] .B,,>F .[_A,B,D]2 [A,B,]B | x6 | x[K:treble] x5 |[M:3/8][K:bass] x3 |] %18

